X:1
T:Title
%%score { ( 1 2 ) | ( 3 4 ) }
L:1/8
M:4/4
K:C
V:1 treble nm="Grand Piano"
V:2 treble 
V:3 bass 
V:4 bass 
V:1
 z4 z2[Q:1/4=100] [DB]>A | G2 D2 GABc | d2 e2 d2 z B | [D^FB]2 [CFA]2 [CFA]2 z [DFB] | %4
[M:3/4] [CDA]2 [B,DG]2 [B,DG]2 |[M:1/4] [DB]>A |[M:4/4] G2 D2 GABc | d2 e2 d2 z B | %8
 B2 GB [^FA]2 A2 |[M:3/4] G6 |] %10
V:2
 z4 z2 ^F2 | x8 | x8 | x8 |[M:3/4] x6 |[M:1/4] ^F2 |[M:4/4] x8 | x8 | x8 |[M:3/4] x6 |] %10
V:3
 z4 z2 z z/ C/ | z4 .B,2[K:treble] .D2 | [G,B,G]2 [G,CG]2 [G,B,G]2 z [G,DG] | D,2 D,2 D,2 z D, | %4
[M:3/4] G,2 G,2 G,2 |[M:1/4] z z/[K:treble] C/ |[M:4/4] z4 .B,2 .D2 | %7
 [G,B,G]2 [G,CG]2 [G,B,G]2 z [G,DG] | [A,^CG]2 [A,CE][A,CG][K:bass] [D,D]2 [D,=CD]2 | %9
[M:3/4] [G,B,D]6 |] %10
V:4
 z4 z2 D,2 | [G,B,D]2 [G,B,]2 [G,D]-[G,CD][K:treble][G,G]-[G,CG] | x8 | x8 |[M:3/4] x6 | %5
[M:1/4] D,2[K:treble] |[M:4/4] [G,B,D]2 [G,B,]2 [G,D]-[G,CD][G,G]-[G,CG] | x8 | x4[K:bass] x4 | %9
[M:3/4] x6 |] %10

